svg/Octicons/paintcan.svg

<svg xmlns="http://www.w3.org/2000/svg" viewBox="0 0 768 1024"><path d="m384 0c-212.08 0-384 171.92-384 384v64c0 35.35 28.654 64 64 64v320c0 70.69 143.27 128 320 128s320-57.31 320-128v-320c35.35 0 64-28.654 64-64v-64c0-212.08-171.92-384-384-384m192 640v32c0 17.673-14.327 32-32 32s-32-14.327-32-32v-32c0-17.673-14.327-32-32-32s-32 14.327-32 32v160c0 17.673-14.327 32-32 32s-32-14.327-32-32v-128c0-17.673-14.327-32-32-32s-32 14.327-32 32v32c0 35.35-28.654 64-64 64s-64-28.654-64-64v-64c-35.35 0-64-28.654-64-64v-115.19c58.38 31.08 151.32 51.19 256 51.19s197.62-20.11 256-51.19v115.19c0 35.35-28.654 64-64 64m-192-192c-107.43 0-199.39-26.474-237.37-64 37.979-37.526 129.94-64 237.37-64s199.39 26.474 237.37 64c-37.979 37.526-129.94 64-237.37 64m0-192c-176.62 0-319.82 57.24-320 127.87-.0001-.0001-.002-.0001-.003-.002.074-176.67 143.31-319.87 320-319.87 176.73 0 320 143.27 320 320 0-70.69-143.27-128-320-128"/></svg>

<svg height="1024" width="768" xmlns="http://www.w3.org/2000/svg">
  <path d="M384 0C171.923 0 0 171.923 0 384v64c0 35.346 28.654 64 64 64v320c0 70.692 143.269 128 320 128s320-57.308 320-128V512c35.346 0 64-28.654 64-64v-64C768 171.923 596.077 0 384 0zM576 640v32c0 17.673-14.327 32-32 32s-32-14.327-32-32v-32c0-17.673-14.327-32-32-32s-32 14.327-32 32v160c0 17.673-14.327 32-32 32s-32-14.327-32-32V672c0-17.673-14.327-32-32-32s-32 14.327-32 32v32c0 35.346-28.654 64-64 64s-64-28.654-64-64v-64c-35.346 0-64-28.654-64-64V460.807C186.382 491.892 279.318 512 384 512s197.618-20.108 256-51.193V576C640 611.346 611.346 640 576 640zM384 448c-107.433 0-199.393-26.474-237.372-64 37.979-37.526 129.939-64 237.372-64s199.393 26.474 237.372 64C583.393 421.526 491.433 448 384 448zM384 256c-176.62 0-319.816 57.236-319.996 127.867-0.001-0.001-0.002-0.001-0.003-0.002C64.075 207.19600000000003 207.314 64 384 64c176.731 0 320 143.269 320 320C704 313.308 560.731 256 384 256z" />
</svg>
